!!!COM: Bach, Johann Sebastian
!!!CDT: 1685/3//-1750/7/28/
!!!OTL@@DE: Erstanden ist der heil'ge Christ
!!!AGN: 4-Part Chorale
!!!SCT: Erk 176
!!!SCT: BWV 306
!!!YEC: Copyright 1994, David Huron
!!!YEC: Changes/Additions 2001 by Craig Stuart Sapp
!!!YEN: United States of America
!!!SMA: 371 Bach Chorales, edited by Ludwig Erk, C.F. Peters
!!!PDT: 1850, 1865
!!!ONB: Harmony and Root analysis done manually
**kern	**kern	**kern	**kern	**root	**harm	**kern
!bass	!tenor	!alto	!soprno	!	!	!
*Iorgan	*Iorgan	*Iorgan	*Iorgan	*Iorgan	*	*Iorgan
*M3/4	*M3/4	*M3/4	*M3/4	*M3/4	*M3/4	*M3/4
*MM60	*MM60	*MM60	*MM60	*MM60	*MM60	*MM60
*k[b-]	*k[b-]	*k[b-]	*k[b-]	*k[b-]	*k[b-]	*k[b-]
*F:	*F:	*F:	*F:	*F:	*F:	*F:
4FF	4A	4c	4f	4FF	I	4F 4a 4cc
=1	=1	=1	=1	=1	=1	=1
4.F	8A	4c	4.f	4.FF	I	4.F 4.a 4.cc
.	8B-	.	.	.	.	.
.	8A	8d	.	.	.	.
8E	8G	8e	8g	8EE	vii	8E 8g 8b
4D	4F	[4f	8a	4DD	vi	4D 4f 4a
.	.	.	8b-	.	.	.
=2	=2	=2	=2	=2	=2	=2
4.C	2G	4f]	2cc	2CC	V	2C 2e 2g
.	.	8e	.	.	.	.
8D	.	8f	.	.	.	.
8E	4c	[4g	4g	4CC	Vb	4c 4E 4g
8C	.	.	.	.	.	.
=3	=3	=3	=3	=3	=3	=3
4.F	2c	8g]	2a	2FF	I	2F 2a 2cc
.	.	8e	.	.	.	.
.	.	[2f	.	.	.	.
8E	.	.	.	.	.	.
4D	4d	.	4bn	4BB	viib/V	4b 4D 4ff#
=4	=4	=4	=4	=4	=4	=4
2C;	2G;	4f]	2cc;	2CC;	V;	2C; 2e; 2g;
.	.	4e	.	.	.	.
4E	4c	[4g	4b-y	4CC	V7b	4c 4E 4g 4b-
=5	=5	=5	=5	=5	=5	=5
4.F	8c	4g]	4.a	4FF	I	4F 4a 4cc
.	8A	.	.	.	.	.
.	2d	2f	.	4DD	vib	4d 4F 4a
8E	.	.	8g	.	.	.
4D	.	.	8a	4DD	vi	4D 4f 4a
.	.	.	8b-	.	.	.
=6	=6	=6	=6	=6	=6	=6
4.E	8c	8g	2cc	4CC	Vb	4c 4E 4g
.	8d	8f	.	.	.	.
.	4e	8g	.	8CC	Vb	8c 8E 8g
8F#	.	[8a	.	8FF#	vii7/ii	8F# 8a 8cc# 8ee-
4G	4d	8a]	4b-	4GG	ii	4G 4b- 4dd
.	.	[8g	.	.	.	.
=7	=7	=7	=7	=7	=7	=7
4.D	4d	8g]	2a	4DD	vi	4D 4f 4a
.	.	16f	.	.	.	.
.	.	16e	.	.	.	.
.	4A	[4f	.	4DD	vi	4D 4f 4a
8C	.	.	.	.	.	.
4BB-	4D	8f]	4g	4EE	v7c/III	4e 4g 4B 4dd
.	.	16e	.	.	.	.
.	.	16d	.	.	.	.
=8	=8	=8	=8	=8	=8	=8
2AA;	2E;	2c#;	2a;	2AA;	III;	2A; 2cc#; 2ee;
4D	4F	4d	4a	4DD	vi	4D 4f 4a
=9	=9	=9	=9	=9	=9	=9
8A	4A	4.e	2cc	4AA	iii	4A 4cc 4ee
8AA	.	.	.	.	.	.
8A	[2c	.	.	4AA	iii	4A 4cc 4ee
8G	.	8f	.	.	.	.
8F	.	[4g	4b-	4CC	V7b	4c 4E 4g 4b-
8E	.	.	.	.	.	.
=10	=10	=10	=10	=10	=10	=10
8F	8c]	4g]	2a	4FF	I	4F 4a 4cc
8FF	8A	.	.	.	.	.
8F	8d	4f	.	4DD	vib	4d 4F 4a
8E	8c	.	.	.	.	.
8D	4B-	[4e	4g	4CC#	viioD7/vi	4C# 4e 4g 4b-
8C#	.	.	.	.	.	.
=11	=11	=11	=11	=11	=11	=11
4D	8A	4e]	2f	4DD	vi	4D 4f 4a
.	8F	.	.	.	.	.
4BB-	8B-	4d	.	4BB-	IV	4B- 4dd 4ff
.	8A	.	.	.	.	.
4Cn	4G	8c	4e	4CC	V	4C 4e 4g
.	.	8B-	.	.	.	.
=12	=12	=12	=12	=12	=12	=12
2D;	2F;	2A;	2f;	2DD;	vi;	2D; 2f; 2a;
8D	4A	4d	4f	4DD	vi	4D 4f 4a
8C	.	.	.	.	.	.
=13	=13	=13	=13	=13	=13	=13
4.BB-	4G	4d	8g	4GG	iib	4g 4B- 4dd
.	.	.	8f	.	.	.
.	4c	8e	8g	8CC	V7d	8c 8e 8g 8B-
8AA	.	8f	8a	8FF	Ib	8f 8A 8cc
4GG	8d	8d	4b-	4GG	ii	4G 4b- 4dd
.	8G	8e	.	.	.	.
=14	=14	=14	=14	=14	=14	=14
8FF	8A	2f	2a	4FF	I	4F 4a 4cc
8GG	8B-	.	.	.	.	.
8AA	[4c	.	.	4FF	Ib	4f 4A 4cc
8BB-	.	.	.	.	.	.
4C	8c]	[4e	4g	4CC	V	4C 4e 4g
.	8B-	.	.	.	.	.
=15	=15	=15	=15	=15	=15	=15
8D	4A	4e]	2f	4DD	vi	4D 4f 4a
8C	.	.	.	.	.	.
4BB-	8B-	4d	.	4BB-	IV	4B- 4dd 4ff
.	8A	.	.	.	.	.
4C	8G	4c	4e	4CC	V7	4C 4e 4g 4b-
.	8B-	.	.	.	.	.
=16	=16	=16	=16	=16	=16	=16
2FF;	2A;	2c;	2f;	2FF;	I;	2F; 2a; 2cc;
==	==	==	==	==	==	==
*-	*-	*-	*-	*-	*-	*-
